X:204
T:Polska
T:(SvL Hälsingland 204)
R:Polska
O:Delsbo, Hälsingland
B:Svenska Låtar Hälsingland
S:Carl Sved
S:Per Andersson
S:P. Söderblom
M:3/4
L:1/8
K:C
C/E/C/E/ GG cc|ec/e/ ge/g/ c'2|af/a/ g(e/g/) f/e/d/c/|c(B/c/) (d/c/)B/A/ G2|
C/E/C/E/ GG cc|ec/e/ ge/g/ c'2|af/a/ ge/g/ (f/e/)d/c/|B/c/d/B/ d2 c2:|
|:E/G/c/e/ g(g/e/) c2|c(B/c/) d/c/B/A/ G2|(E/G/)c/e/ g/e/g/e/ cc|c(B/c/) (d/c/)B/A/ G2|
C/E/C/E/ GG cc|ec/e/ ge/g/ c'2|af/a/ ge/g/ (f/e/)d/c/|B/c/d/B/ d2 c2:|

